!!!!SEGMENT: pl-wtm--2324-fp-8063_joteyko-tadeusz--fantazja-goralska-op-52.krn
!!!cenid: 19xx:102
!!!COM: Joteyko, Tadeusz
!!!COM-rismID: pe50046072
!!!CDT: 1872-1932
!!!CNT: Polish
!!!OTL: Fantazja góralska op. 52
!!!PDT: 1928
!!!AGN: Secular; Fantasy
!!!YEC: Copyright 2022 Narodowy Instytut Fryderyka Chopina (https://polishscores.org)
!!!YEM: License CC-BY-4.0 (https://creativecommons.org/licenses/by/4.0)
!!!SMS-siglum: PL-Wtm
!!!SMS-shelfmark: 2324 fp 8063
!!!SMS-variant:
!!!SMS-altvar:
!!!SMS-shelfwork: W
!!!NIFC-rismSourceID: 1001153074
!!!NIFC-rismChildID: 1001153074
!!!NIFC-islandoraID: pl-wtm:88915
!!!URL-pdf-islandora: https://repozytorium.nifc.pl/islandora/object/pl-wtm%3A88915/datastream/PDF/view
!!!URL-scan: https://polish.musicsources.pl/pl/lokalizacje/galeria/druki-muzyczne/19292/3 @EN{Scan on Polish Music Sources Website} @PL{Skany w portalu Dziedzictwo Muzyki Polskiej w otwartym dostępie}
!!!IIIF:
!!!ONB-nifc:
!!!AIN: 1 piano
!!!key: none
**kern	**kern	**dynam
*part1	*part1	*part1
*staff2	*staff1	*staff1/2
*group1	*group1	*
*ICklav	*ICklav	*
*Ipiano	*Ipiano	*
*I"piano	*I"piano	*
*I'	*I'	*
*clefF4	*clefF4	*
*k[]	*k[]	*
*C:	*C:	*
*M2/4	*M2/4	*
=1	=1	=1
!!LO:TX:a:B:t=Allegro vivace.
!LO:S:s=1:note:problem=note-level slur	!	!
(8qFF#X/	.	.
!LO:S:s=1:note:problem=note-level slur	!	!
4GG) 4CC/	4r	f
.	(8qF#X/	.
4r	4G 4C\)	.
=2	=2	=2
(8qF#X/	.	.
4G) 4C\	4r	.
*	*clefG2	*
!	!LO:S:s=1:note:problem=note-level slur	!
.	(8qf#X/	.
!	!LO:S:s=1:note:problem=note-level slur	!
4r	4g) 4c/	.
*clefG2	*	*
=3	=3	=3
!LO:S:s=1:note:problem=note-level slur	!	!
(8qf#X/	.	.
!LO:S:s=1:note:problem=note-level slur	!	!
4g) 4c/	4r	.
.	(8qff#X/	.
4r	4gg) 4cc\	.
=4	=4	=4
(8qff#X/	.	.
4gg) 4cc\	4r	.
!	!LO:S:s=1:note:problem=note-level slur	!
.	(8qfff#X/	.
!	!LO:S:s=1:note:problem=note-level slur	!
4r	4ggg 4ccc\)	.
=5	=5	=5
!LO:S:s=1:note:problem=note-level slur	!	!
(8qf#X/	.	.
!LO:S:s=1:note:problem=note-level slur	!	!LO:DY:rj
8gL) 8c/	2r	p
8g 8c/	.	.
8g 8c/	.	.
8gJ 8c/	.	.
=6	=6	=6
8gL 8c/	2r	.
8g 8c/	.	.
8g 8c/	.	.
8gJ 8c/	.	.
!!LO:LB:g=original
=7	=7	=7
8gL 8c/	8aaL 8ff 8dd\	.
8g 8c/	8bbJ 8gg 8ee\	.
8g 8c/	8aaL 8ff 8dd\	.
8gJ 8c/	8bbJ 8gg 8ee\	.
=8	=8	=8
8gL 8c/	16aaLL 16ff 16dd\	.
.	16bb 16gg 16ee\	.
8g 8c/	16aa 16ff 16dd\	.
.	16ggJJ 16ee 16cc\	.
8g 8c/	8ffL 8dd 8b\	.
8gJ 8c/	8eeJ 8cc\	.
=9	=9	=9
*^	*	*
8aL 8f/	2G\	8ffL 8dd 8b\	.
8gJ 8e/	.	8ggJ 8ee 8cc\	.
8aL 8f/	.	8ffL 8dd 8b\	.
8gJ 8e/	.	8ggJ 8ee 8cc\	.
*v	*v	*	*
=10	=10	=10
!LO:TX:t=P:problem:belka ósemkowa nad pauzą	!	!
16aLL 16f/	16ffLL 16dd 16b\	.
8r	16gg 16ee 16cc\	.
.	16ff 16dd 16b\	.
(16f#X/JJ	16eeJJ 16cc 16a\	.
8g/L)	4dd 4b\	.
[8G/J	.	.
=11	=11	=11
*^	*	*
(8f/L	2G\_	(8ccL 8a\	.
8e/J)	.	8ddJ 8b\)	.
(8f/L	.	(8ccL 8a\	<
8e/J)	.	8ddJ 8b\)	.
!!LO:LB:g=original
=12	=12	=12	=12
(8f/L	2G\]	(16ccLL 16a\	.
.	.	16dd 16b\	.
8e/J	.	16cc 16a\	.
.	.	16bJJ 16g\	[[
8d/L)	.	8aL 8f/)	.
8c/J	.	8gJ 8e/	.
*v	*v	*	*
*clefF4	*	*
=13	=13	=13
(8cL 8A-X\	8f#XL [8d/	.
8BJ 8G\)	8gJ 8d/]	.
(8cL 8A-\	8f#L [8d/	.
8BJ 8G\)	8gJ 8d/]	.
=14	=14	=14
(8cL 8A-X\	(<16f#XLL 16d/	.
.	16g/	.
8D\J)	16f#/	.
.	16e/JJ	.
8B: 8Fn: 8GG:\	32d\LLL)	.
.	(32e\	.
.	32fn\	<
.	32g\J	.
!	!LO:TUP:a	!
8r	56a\L	.
.	56b\	.
.	56cc\	.
.	56dd\	.
.	56ee\	.
.	56ff\	.
.	56gg\JJJ)	[[
*clefG2	*	*
=15	=15	=15
(16g/LL	8aaL 8ff 8dd\	f
16f/	.	.
16e/	8bbJ 8gg 8ee\	.
16d/JJ	.	.
16c/LL	8aaL 8ff 8dd\	.
16B/	.	.
16A/	8bbJ 8gg 8ee\	.
16G/JJ)	.	.
!!LO:LB:g=original
=16	=16	=16
8g/L	16aaLL 16ff 16dd\	.
.	16bb 16gg 16ee\	.
8G/J	16aa 16ff 16dd\	.
.	16ggJJ 16ee 16cc\	.
(16A/LL	8ffL 8dd 8b\	.
16B/	.	.
16c/	8eeJ 8cc\	.
16d/JJ)	.	.
=17	=17	=17
(16e/LL	8ffL 8dd 8b\	.
16d/	.	.
16c/	8ggJ 8ee 8cc\	.
16B/JJ	.	.
*clefF4	*	*
16A\LL	8ffL 8dd 8b\	.
16G\	.	.
16F\	8ggJ 8ee 8cc\	.
16E\JJ)	.	.
=18	=18	=18
(8F\L	16ffLL 16dd 16b\	.
.	16gg 16ee 16cc\	.
8F#X\J	16ff 16dd 16b\	.
.	16eeJJ 16cc 16a\	.
8G/L)	4dd 4b 4g\	.
8GG/J	.	.
=19	=19	=19
8A\L	8cc#XL 8g 8e/	.
16G\L	16ddL 16a 16f/	.
16G\JJ	16ddJJ 16a 16f/	<
8F\L	8eeL 8b 8g\	.
8E\J	8ffJ 8ccn 8a\	.
=20	=20	=20
8D/L	8ggL 8dd 8b\	.
8C/	8aa 8ee 8cc\	[[
8BB/	8bb 8ff 8dd\	.
8AA/J	8cccJ 8gg 8ee\	.
!!LO:LB:g=original
=21	=21	=21
8GG\L	8dddL 8aa 8ff\	ff
(8qF#X/	.	.
8G\J)	8eeeJ 8bb 8gg\	.
8GG\L	8dddL 8aa 8ff\	.
(8qF#/	.	.
8G\J)	8eeeJ 8bb 8gg\	.
=22	=22	=22
8GG\L	8dddL 8aa 8ff\	.
(8qF#X/	.	.
8G\J)	16cccL 16gg 16ee\	.
.	16bbJJ 16ff 16dd\	.
8C\L	8ccc 8gg 8ee\	.
(8qB/	.	.
8c\J)	8r	.
*clefG2	*	*
=23||	=23||	=23||
!	!LO:TX:t=P:problem:mixed beam	!LO:DY:rj
2ryy	8cc#X<L 8f#X</	p
.	8bbJ 8gg#X 8ee\	.
!	!LO:TX:t=P:problem:mixed beam	!
.	8b<L 8e</	.
!	!LO:TX:t=P:problem:# w nawiasie	!
.	8gg#XJ 8ee 8cc#X\	.
=24	=24	=24
!	!LO:TX:t=P:problem:mixed beam	!
2ryy	8a<L 8d<\	.
.	16ff#XL 16dd 16b/	.
.	16ff#JJ 16dd 16b/	.
!	!LO:TX:t=P:problem:mixed beam	!
.	8g#X<L 8c#X<\	.
.	8eeJ 8cc#X 8a/	.
*clefF4	*	*
=25	=25	=25
*	*^	*
8F#XL 8BB\	8dd#X/L	4b\	.
8f#XJ 8B\	(16dd#/L	.	.
.	16ff#X/JJ)	.	.
.	(>8qff#/	.	.
8F#L 8BB\	4cc#X 4a#X\)	4ryy	.
8f#J 8B\	.	.	.
!!LO:PB:g=original
=26	=26	=26	=26
8F#XL 8BB\	8dd#X/L	4an\	.
8f#XJ 8B\	(16dd#/L	.	.
.	16ff#X/JJ)	.	.
.	(>8qff#/	.	.
8F#L 8BB\	4cc#X 4g#X/)	4ryy	.
8f#J 8B\	.	.	.
=27	=27	=27	=27
8DL 8GG\	8b/L	4gn\	.
8dJ 8G\	(16b/L	.	.
.	16dd/JJ)	.	.
.	(>8qdd/	.	.
8DL 8GG\	4a 4f#X/)	4ryy	.
8dJ 8G\	.	.	.
=28	=28	=28	=28
8DL 8GG\	8b/L	4fn\	.
8dJ 8G\	(16b/L	.	.
.	16dd/JJ)	.	.
.	(>8qdd/	.	.
8DL 8GG\	4a 4e/)	4ryy	.
8dJ 8G\	.	.	.
*	*v	*v	*
=29	=29	=29
!	!LO:TX:t=P:problem:mixed beam	!
2ryy	16F<\LL	.
.	16c<\	.
.	16a 16f 16d/	.
.	16aJJ 16f 16d/	.
!	!LO:TX:t=P:problem:mixed beam	!
.	16E<\LL	.
.	16B<\	.
!	!	!LO:HP:a
.	16g#X 16e 16c#X/	>
.	16g#JJ 16e 16c#/	.
=30	=30	=30
!	!LO:TX:t=P:problem:mixed beam	!
4ryy	16D<\LL	.
.	16A<\	.
.	16f#X 16d 16B/	.
.	16f#JJ 16d 16B/	]]
8C\L	8r	.
8G\J	8e 8c 8A/	.
!!LO:LB:g=original
=31	=31	=31
*	*^	*
!	!	!	!LO:DY:rj
8FF#XL 8BBB/	8d#X/L	4B\	pp
8F#XJ 8BB/	(16d#/L	.	.
.	16f#X/JJ)	.	.
.	(>8qf#/	.	.
8FF#L 8BBB/	4c#X 4A#X/)	4ryy	.
8F#J 8BB/	.	.	.
=32	=32	=32	=32
8FF#XL 8BBB/	8d#X/L	4An\	.
8F#XJ 8BB/	(16d#/L	.	.
.	16f#X/JJ)	.	.
.	(>8qf#/	.	.
8FF#L 8BBB/	4c#X 4G#X/)	4ryy	.
8F#J 8BB/	.	.	.
*	*v	*v	*
=33	=33	=33
.	(>8qff#X/	.
8FF#XL 8BBB/	4cc#X 4g#X/)	.
8F#XJ 8BB/	.	.
.	(>8qfff#X/	<
8FF#L 8BBB/	4ccc#X 4gg#X\)	.
8F#J 8BB/	.	.
=34	=34	=34
*	*8va	*
(8AL 8Fn\	8fffL 8ddd 8ff\	.
8G#X 8E\	8fff#X 8ddd 8ff#X\	.
8Gn 8E-X\	8ggg 8eee-X 8gg\	[
8FJ 8D\)	8ggg#XJ 8fffn 8gg#X\	.
=35	=35	=35
8.CL 8.CC/	8aaaL 8fff 8ddd\	f
.	8bbbJ 8ggg 8eee\	.
(16DJk (16DD/	.	.
8.EL 8.EE/))	8aaaL 8fff 8ddd\	.
.	8bbbJ 8ggg 8eee\	.
(16FJk (16FF/	.	.
!!LO:LB:g=original
=36	=36	=36
4G 4GG/))	16aaaLL 16fff 16ddd\	.
.	16bbb 16ggg 16eee\	.
.	16aaa 16fff 16ddd\	.
.	16gggJJ 16eee 16ccc\	.
16ALL 16AA\	8fffL 8ddd 8bb\	.
16B 16BB\	.	.
16c 16C\	8eeeJ 8ccc 8aa\	.
16BJJ 16BB\	.	.
=37	=37	=37
8.AL 8.AA\	8fffL 8ddd 8bb\	.
.	8gggJ 8eee 8ccc\	.
(16BJk (16BB\	.	.
8.cL 8.C\))	8fffL 8ddd 8bb\	.
.	8gggJ 8eee 8ccc\	.
(16dJk (16D\	.	.
=38	=38	=38
*^	*	*
8eL 8E\))	4ryy	16fffLL 16ddd 16bb\	.
.	.	16ggg 16eee 16ccc\	.
(16fL 16F\	.	16fff 16ddd 16bb\	.
16f#XJJ 16F#X\)	.	16eeeJJ 16ccc 16aa\	.
(16g/LL	[4G\	4ddd 4bb 4gg\	.
16fn/	.	.	.
16e/	.	.	.
16d/JJ)	.	.	.
*v	*v	*	*
*	*X8va	*
=39	=39	=39
*^	*	*
(8e/L	2G\_	(8cccL 8aa 8ee\	.
8d/J)	.	8dddJ 8bb 8ff\)	.
(8e/L	.	(8cccL 8aa 8ee\	.
8d/J)	.	8dddJ 8bb 8ff\)	.
=40	=40	=40	=40
(16e/LL	2G\]	(16cccLL 16aa 16ee\	.
16d/	.	16ddd 16bb 16ff\	.
16e/	.	16ccc 16aa 16ee\	.
16f/JJ	.	16bbJJ 16gg 16dd\	.
8g/L)	.	8aaL 8ff 8cc\)	.
8a/J	.	8ggJ 8ee 8cc\	.
*v	*v	*	*
*clefG2	*	*
!!LO:LB:g=original
=41	=41	=41
(8a-X/L	(8ff#XL 8ee-X 8cc\	.
8g/J)	8ggJ 8dd 8b\)	.
(8a-/L	(8ff#L 8ee- 8cc\	.
8g/J)	8ggJ 8dd 8b\)	.
=42	=42	=42
*	*^	*
(8a-X/L	(16ff#X/LL	(8dd\L	.
.	16gg/	.	.
8d/J	16ff#/	8cc\J	.
.	16ee/JJ	.	.
8G/)	8dd 8b 8fn/))	4ryy	.
*	*clefF4	*	*
*	*cue	*	*
*	*Xtuplet	*	*
*	*rscale:4	*	*
8r	(232GG\LLL	.	.
.	232AA\	.	.
.	232BB\	.	.
.	232C\	.	.
.	232D\	.	.
.	232E\	.	.
.	232F\	.	.
.	232G\	.	.
.	232A\	.	.
.	232B\	.	.
*	*clefG2	*	*
!	!LO:TX:b:i:t=glissando	!	!
.	232c\	.	<
.	232d\	.	.
.	232e\	.	.
.	232f\	.	.
.	232g\	.	.
.	232a\	.	.
.	232b\	.	.
.	232cc\	.	.
.	232dd\	.	.
.	232ee\	.	.
.	232ffny\	.	.
.	232gg\	.	.
.	232aa\	.	.
.	232bb\	.	[[
.	232ccc\	.	.
.	232ddd\	.	.
.	232eee\	.	.
.	232fff\	.	.
.	232ggg\JJJ)	.	.
*	*rscale:1	*	*
*	*Xcue	*	*
*	*v	*v	*
*clefG2	*	*
=43	=43	=43
*	*8va	*
!LO:TX:t=P:problem:klucz wiolinowy w nawiasie	!	!
(16gg\LL	8aaaL 8fff 8ddd\	f
16ff\	.	.
16ee\	8bbbJ 8ggg 8eee\	.
16dd\JJ	.	.
16cc\LL	8aaaL 8fff 8ddd\	.
16b\	.	.
16a\	8bbbJ 8ggg 8eee\	.
16g\JJ)	.	.
!!LO:LB:g=original
=44	=44	=44
8gg\L	16aaaLL 16fff 16ddd\	.
.	16bbb 16ggg 16eee\	.
8g\J	16aaa 16fff 16ddd\	.
.	16gggJJ 16eee 16ccc\	.
(16a\LL	8fffL 8ddd 8bb\	.
16b\	.	.
16cc\	8eeeJ 8ccc 8aa\	.
16dd\JJ)	.	.
=45	=45	=45
(16ee\LL	8fffL 8ddd 8bb\	.
16dd\	.	.
16cc\	8gggJ 8eee 8ccc\	.
16b\JJ	.	.
16a/LL	8fffL 8ddd 8bb\	.
16g/	.	.
16f/	8gggJ 8eee 8ccc\	.
16e/JJ)	.	.
=46	=46	=46
(8f/L	16fffLL 16ddd 16bb\	.
.	16ggg 16eee 16ccc\	.
8f#X/J	16fff 16ddd 16bb\	.
.	16eeeJJ 16ccc 16aa\	.
8g/L)	4ddd 4bb 4gg\	.
8G/J	.	.
=47	=47	=47
8a/L	16ccc#XLL 16gg/	.
.	16ee/	.
8g/	16ddd 16aa/	.
.	16ff/JJ	.
8f/	16eeeLL 16bb\	.
.	16gg\	.
8e/J	16fff 16cccn\	>
.	16aa\JJ	.
!!LO:LB:g=original
=48	=48	=48
8d/L	16gggLL 16ddd\	.
.	16bb\	.
8c/	16aaa 16eee\	.
.	16ccc\JJ	.
8B/	16bbbLL 16fff\	.
.	16ddd\	.
8A/J	16cccc 16ggg\	]
.	16eee\JJ	.
=49	=49	=49
8G/L	8ddddL 8aaa 8fff\	pp
(8qf#X/	.	.
8g/J)	8eeeeJ 8bbb 8ggg\	.
8G/L	8ddddL 8aaa 8fff\	.
(8qf#/	.	.
8g/J)	8eeeeJ 8bbb 8ggg\	.
=50	=50	=50
8G/L	8ddddL 8aaa 8fff\	.
(8qf#X/	.	.
8g/J)	16ccccL 16ggg 16eee\	.
.	16bbbJJ 16fff 16ddd\	.
8c/	8cccc 8ggg 8eee\	.
8r	8r	.
*	*X8va	*
*clefF4	*	*
=51||	=51||	=51||
(8AA-X\L	2r	p
8E-X\	.	.
8A-X\	.	.
8E-\J)	.	.
=52	=52	=52
(8AA-X\L	2r	.
8E-X\	.	.
8A-X\	.	.
8E-\J)	.	.
!!LO:PB:g=original
=53	=53	=53
*	*^	*
(8AA-X\L	(8ff^/L	4cc-X 4f\	.
8E-X\	16ee-X/L	.	.
.	16dd-X/JJ	.	.
!	!LO:TX:t=P:problem:znak cc- w nawiasie	!	!
8A-X\	8cc-XL 8g-X/	4ryy	.
8E-\J)	8b-XJ 8f/	.	.
*	*v	*v	*
=54	=54	=54
(8AA-X\L	16cc-XLL 16g-X/	.
.	16b-X 16f/	.
8E-X\	16cc- 16g-/	.
.	16dd-XJJ 16a-X/	.
!	!LO:TX:t=P:problem:znak b- w nawiasie	!
8A-X\	8ee-XL 8b-X/	.
!	!LO:TX:t=P:problem:znaki w nawiasie	!
8E-\J)	8cc-XJ 8g-X/)	.
=55	=55	=55
*	*^	*
(8AA-X\L	(8ff^/L	4cc-X 4f\	.
8E-X\	16ee-X/L	.	.
.	16dd-X/JJ	.	.
!	!LO:TX:t=P:problem:znak cc- w nawiasie	!	!
8A-X\	8cc-XL 8g-X/	4ryy	.
8E-\J)	8b-XJ 8f/	.	.
*	*v	*v	*
=56	=56	=56
(8AA-X/L	16cc-XLL 16g-X/	.
.	16dd-X 16a-X/	.
8E-X/J)	16cc- 16g-/	.
.	16b-XJJ 16f/	.
!	!LO:TX:t=P:problem:znak a- w nawiasie	!
(16c-X\LL	4a-X 4e-X/)	.
16B-X\	.	.
16A-X\	.	.
16G-X\JJ)	.	.
!!LO:LB:g=original
=57	=57	=57
*	*^	*
8F\L	(8ee-X^/L	4a-X 4e-X\	.
8c-X\J	16dd-X/L	.	.
.	16cc-X/JJ	.	.
8F\L	8b-X/L	4dn\	.
!	!LO:TX:t=P:problem:- w nawiasie	!	!
8c-\J	8a-X/J	.	.
*	*v	*v	*
=58	=58	=58
8D-X\L	16b-XLL 16e-X/	.
.	16a-X 16f/	.
8A-X\J	16b- 16g-X/	.
.	16cc-XJJ 16a-/	.
8D-\L	8dd-XL 8f/	.
8A-\J	8a-J 8f-X/)	.
=59	=59	=59
*	*^	*
8C-X\L	(8ee-X^/L	4a-X 4e-X\	.
8F\J	16dd-X/L	.	.
.	16cc-X/JJ	.	.
8C-\L	8b-X/L	4dn\	.
!	!LO:TX:t=P:problem:- w nawiasie	!	!
8F\J	8a-X/J	.	.
=60	=60	=60	=60
8AA-X\L	16cc-XLL 16e-X/	4ryy	.
.	16dd-X 16b-X/	.	.
8E-X\	16cc- 16a-X/	.	.
!	!LO:TX:t=P:problem:znak b- w nawiasie	!	!
.	16b-XJJ 16g-X/	.	.
!	!LO:TX:t=P:problem:- w nawiasie	!	!
8A-X\J	8a-X/)	(16f\LL	.
.	.	16e-\	.
8r	8r	16d-X\	.
.	.	16c-X\JJ)	.
!!LO:LB:g=original
=61	=61	=61	=61
8E-XL 8BB-X\	(8b-X^/L	2B-X\	.
8FJ 8BB-\	16a/L	.	.
.	16g/JJ	.	.
8E-L 8BB-\	8f/L	.	.
8FJ 8BB-\	8e-X/J	.	.
=62	=62	=62	=62
8E-XL 8BB-X\	16f/LL	2B-X\	.
.	16e-X/	.	.
8FJ 8BB-\	16f/	.	.
.	16g/JJ	.	.
8E-L 8BB-\	8a/L	.	.
8FJ 8BB-\	8f/J)	.	.
=63	=63	=63	=63
8E-XL 8BB-X\	(8b-X^/L	2B-X\	.
8FJ 8BB-\	16a/L	.	.
.	16g/JJ	.	.
8E-L 8BB-\	8f/L	.	.
8FJ 8BB-\	8e-X/J	.	.
=64	=64	=64	=64
8E-XL 8BB-X\	16g/LL	2B-X\	.
.	16a/	.	.
8FJ 8BB-\	16g/	.	.
.	16f/JJ	.	.
8E-L 8BB-\	4e-X/)	.	.
8FJ 8BB-\	.	.	.
=65	=65	=65	=65
8FL 8E-X 8BB-X\	(8bb-X^/L	8b-X\L	f
8cJ 8F 8E-\	16aa/L	8cc\J	.
.	16gg/JJ	.	.
8FL 8E- 8BB-\	8ffL 8dd\	4ryy	.
8cJ 8F 8E-\	8ee-XJ 8cc\	.	.
*	*v	*v	*
!!LO:LB:g=original
=66	=66	=66
8FL 8E-X 8BB-X\	16ffLL 16dd\	.
.	16ee-X 16cc\	.
8cJ 8F 8E-\	16ff 16dd\	.
.	16ggJJ 16ee-\	.
8FL 8E- 8BB-\	8aaL 8ff\	.
8cJ 8F 8E-\	8ffJ 8dd\)	.
=67	=67	=67
*	*^	*
8FL 8E-X 8BB-X\	(8bb-X^/L	8b-X\L	.
8cJ 8F 8E-\	16aa/L	8cc\J	.
.	16gg/JJ	.	.
8FL 8E- 8BB-\	8ffL 8dd\	4ryy	.
8cJ 8F 8E-\	8ee-XJ 8cc\	.	.
*	*v	*v	*
=68	=68	=68
8FL 8E-X 8BB-X\	16ggLL 16ee-X\	.
.	16aa 16ff\	.
8cJ 8F 8E-\	16gg 16ee-\	.
.	16ffJJ 16dd\	.
8FL 8E- 8BB-\	4ee- 4cc\)	.
8cJ 8F 8E-\	.	.
=69	=69	=69
(8d^\L	8r	.
16c#X\L	8dd 8a 8f#X\L	.
16B\JJ	.	.
8A\L	8r	.
8G\J	8ee 8b 8g\J	.
=70	=70	=70
16F#X\LL	8r	.
16E\	.	.
16F#\	8ff#X 8cc#X 8a\L	.
16G\JJ	.	.
8A\L	8r	.
8F#\J)	8gg 8dd 8b\J	.
=71	=71	=71
(8d^\L	8r	.
16c#X\L	8aa 8ee 8cc#X\L	.
16B\JJ	.	.
8A\L	8r	.
8G\J	8bb 8ff#X 8dd\J	.
!!LO:LB:g=original
=72	=72	=72
16F#X\LL	8r	.
16G\	.	.
16F#\	8ccc#XL 8gg 8ee\	.
16E\JJ	.	.
4D\)	8r	.
.	8dddJ 8aa 8ff#X\	.
=73	=73	=73
!	!	!LO:DY:rj
8CL 8CC^/	8ee-XL 8b-X 8g-X^\	ff
8CJ 8CC^/	8ee-J 8b- 8g-^\	.
!	!	!LO:DY:rj
(<16cc>\LL	(>16dddLL 16ff#X/	p
16dd>\	16eee-X 16gg/	.
16cc>\	16ddd 16ff#/	.
16b-X>\JJ)	16cccJJ 16ee-X/)	.
=74	=74	=74
8GL 8GG^/	8b-XL 8f 8d-X^>/	ff
8GJ 8GG^/	8b-J 8f 8d-^>/	.
(<16g>\LL	(>16aaLL 16cc#X/	p
16a>\	16bb-X 16dd/	.
16g>\	16aa 16cc#/	.
16f>\JJ)	16ggJJ 16b-X/)	.
=75	=75	=75
!	!	!LO:DY:rj
8DL 8DD^/	8fL 8c 8A-X^>/	ff
8DJ 8DD^/	8fJ 8c 8A-^>/	.
(<16dd>\LL	(>16eeeLL 16gg#X/	p
16ee>\	16fff 16aa/	.
16dd>\	16eee 16gg#/	.
16cc>\JJ	16dddJJ 16ff/	.
=76	=76	=76
16b-X>\LL	16cccLL 16ee/	.
16cc>\	16ddd 16ff/	.
16b->\	16ccc 16ee/	.
16a>\JJ	16bb-XJJ 16dd/	.
16g>\LL	16aaLL 16cc#X/	.
!	!LO:TX:t=P:problem:- w nawiasie	!
16a>\	16bb-X 16dd/	.
16g>\	16aa 16cc#/	.
16f>\JJ)	16ggJJ 16b-X/)	.
!!LO:LB:g=original
=77	=77	=77
*	*^	*
(8AA-X\L	(8ff^/L	4cc-X 4f\	.
8E-X\	16ee-X/L	.	.
.	16dd-X/JJ	.	.
!	!LO:TX:t=P:problem:znak cc- w nawiasie	!	!
8A-X\	8cc-XL 8g-X/	4ryy	.
8E-\J)	8b-XJ 8f/	.	.
*	*v	*v	*
=78	=78	=78
(8AA-X\L	16cc-XLL 16g-X/	.
.	16b-X 16f/	.
8E-X\	16cc- 16g-/	.
.	16dd-XJJ 16a-X/	.
!	!LO:TX:t=P:problem:znak b- w nawiasie	!
8A-X\	8ee-XL 8b-X\	.
8E-\J)	8cc-J 8g-\)	.
=79	=79	=79
*	*^	*
(8AA-X\L	N(8ff^/L	4cc-X 4f\	.
8E-X\	16ee-X/L	.	.
.	16dd-X/JJ	.	.
!	!LO:TX:t=P:problem:znak cc- w nawiasie	!	!
8A-X\	8cc-XL 8g-X/	4ryy	.
8E-\J)	8b-XJ 8f/	.	.
*	*v	*v	*
=80	=80	=80
(8AA-X\L	16cc-XLL 16g-X\	.
.	16dd-X 16a-X\	.
8E-X\	16cc- 16g-\	.
.	16b-XJJ 16f\	.
!	!LO:TX:t=P:problem:znak a- w nawiasie	!
8c-X\J)	16a-XLL 16e-X/	.
.	16d-X/	.
8r	16c-X/	<
.	16A-X/JJ	.
!!LO:PB:g=original
=81	=81	=81
16G-X\LL	2r	.
16E-X\	.	.
16D-X\	.	.
16C-X\JJ	.	[
16BB-X/LL	.	.
16C-/	.	.
16BB-/	.	.
16AA-X/JJ	.	.
=82	=82	=82
4GG-X/N)	4r	f
4e 4B 4F#X\	4aa 4ff#X 4ee 4a\	.
=83	=83	=83
4GGn 4GGG/	4r	.
4e 4c#X 4G\	4bb 4gg 4ee 4b\	.
=84	=84	=84
4AA-X 4AAA-X/	4r	.
4e 4c 4B-X\	4ccc 4aa-X 4ee 4cc\	.
=85	=85	=85
N(16AAnLL 16AAAn/	4r	.
16C#X/	.	.
16F/	.	.
16G/JJ	.	.
4r	16A/LL	.
.	16c#X/	.
.	16f/	.
.	16g/JJN)	.
*clefG2	*	*
!!LO:LB:g=original
=86	=86	=86
N(16a\LL	4r	.
16cc#X\	.	.
16ff\	.	.
16gg\JJ	.	.
4r	16aa\LL	.
.	16ccc#X\	.
.	16fff\	.
.	16ggg\JJN)	.
=87	=87	=87
*	*tuplet	*
!	!LO:TX:t=P:problem:mixed beam	!
!	!LO:TUP:b	!
2ryy	(24aaa\LL	p
.	24fff\	.
.	24ccc#X\	.
.	24aa\	.
.	24gg</	.
.	24ff</JJ)	.
!	!LO:TX:t=P:problem:mixed beam	!
!	!LO:TUP:b	!
.	(24ff\LL	.
.	24dd\	.
.	24cc#X\	.
.	24a\	.
.	24g</	.
.	24f</JJ)	.
*clefF4	*	*
=88	=88	=88
!	!LO:TX:t=P:problem:mixed beam	!
4ryy	N(<24f\LL	.
.	24d\	.
.	24c#X\	.
.	24A\	.
.	24G</	.
.	24F</JJ	.
8E\L	4r	>
8D\J	.	.
=89	=89	=89
4C/	2r	.
4BB-X/	.	.
=90	=90	=90
2AA-X;/N)	2r;	] pp
!!LO:LB:g=original
=91||	=91||	=91||
.	[8qdd/	.
*^	*^	*
!!LO:TX:a:B:t=Andante.
!	!	!	!	!LO:DY:rj
(<4B 4D 4GG\	4ryy	(4ff 4dd] 4a 4f\	4ryy	p
8c/L	4F\	8eeL 8e/	4a\	.
8B/J	.	8ddJ 8d/	.	.
*v	*v	*	*	*
*	*v	*v	*
=92	=92	=92
8EL 8EE/	8cc#XL 8a 8g 8c#X/	.
8D 8DD/	8dd 8a 8f 8d/	.
8C 8CC/	8ee 8a 8g 8e/	.
8FJ 8AA 8DD;/)	8ddJ 8a 8f 8d;/)	.
=93	=93	=93
.	[8qdd/	.
*	*^	*
(4GG 4GGG/	(4ff 4dd] 4a 4f\	4ryy	.
4GG#X 4GGG#X/	8eeL 8e/	4b\	.
.	8ddJ 8d/	.	.
*	*v	*v	*
=94	=94	=94
8AAL 8AAA/	8cc#XL 8a 8f 8c#X/	.
8EE 8EEE/	8b 8g 8e 8B/	.
!	!LO:TX:t=P:problem:# w nawiasie	!
8FF 8FFF/	8a 8f 8c#X 8A/	.
8CJ 8CC/);	8gJ 8e 8cn 8G;/)	.
=95	=95	=95
.	[8qdd/	f
*^	*^	*
4B: 4D: 4GG:\	4ryy	4ff: 4dd:] 4a: 4f:\	4ryy	.
(8c:/L	4C: 4FF:\	(8ee:L 8e:/	4a:\	.
8B/J)	.	8ddJ 8d/)	.	.
*v	*v	*	*	*
*	*v	*v	*
!!LO:LB:g=original
=96	=96	=96
8G:L 8AA: 8EE:/	8cc#X:L 8a: 8g: 8c#X:/	.
8F: 8AA: 8DD:/	8dd: 8a: 8f: 8d:/	.
8E: 8AA: 8CC:/	8ee: 8a: 8g: 8e:/	.
[8F:J [8AA: [8DD:/	8dd:J 8a: 8f: 8d:/	.
=97	=97	=97
!	!LO:TUP:a	!
2F_ 2AA_ 2DD/_	(24a\LL	pp
.	24dd\	.
.	24ff\J	.
.	8dd\J)	.
!	!LO:TUP:a	!
.	(24a\LL	.
.	24dd\	.
.	24ff\J	.
.	8dd\J)	>
=98	=98	=98
!	!LO:TUP:a	!
4.F] 4.AA] 4.DD;/]	(24aa\LL	.
.	24ddd\	.
.	24fff\JJ	]]
.	4ddd;\)	.
8r;	8r;	.
=99	=99	=99
.	[8qdd/	f
*	*^	*
4B: 4D: 4GG:\	4ff: 4dd:] 4a: 4f:\	4ryy	.
4B: 4E: 4GG#X:\	(8ee:L 8e:/	4b:\	.
.	8ddJ 8d/)	.	.
*	*v	*v	*
=100	=100	=100
8A:L 8F: 8AA:/	8cc#X:L 8a: 8f: 8c#X:/	.
8G: 8BB: 8EE:/	8b: 8g: 8e: 8B:/	.
8F: 8C: 8FF:/	8a: 8f: 8d: 8A:/	.
[8E:J [8GG: [8CC:/	8g:J 8e: 8cn: 8G:/	.
!!LO:LB:g=original
=101	=101	=101
!	!LO:TUP:a	!
2E_ 2GG_ 2CC/_	(24g\LL	pp
.	24cc\	.
.	24ee\J	.
.	8cc\J)	.
!	!LO:TUP:a	!
.	(24g\LL	.
.	24cc\	.
.	24ee\J	.
.	8cc\J)	.
=102	=102	=102
!	!LO:TUP:a	!
4.E] 4.GG] 4.CC;/]	(24gg\LL	>
.	24ccc\	.
.	24eee\JJ	.
.	4ccc;\)	]
8r;	8r;	.
=103||	=103||	=103||
*M3/4	*M3/4	*
4BB 4BBB/	4g: 4e-X: 4G:/	<
4C: 4FF: 4AAA:/	4a: 4f: 4e-: 4A:/	.
(>8GGL 8GGG/	4b: 4g: 4e-: 4B:/	.
8FFJ 8FFF/)	.	.
=104||	=104||	=104||
*M2/4	*M2/4	*
8G:L 8AA: 8EE:/	8cc#XL: 8a: 8g: 8c#X:/	[
8F: 8AA: 8DD:/	8dd: 8a: 8f: 8d:/	.
8E: 8AA: 8CC:/	8ee: 8ccn: 8a: 8e:/	>
[8B:J [>8D: [8GG:/	8ddJ: 8b: 8g: 8d:/	]]
=105	=105	=105
!	!LO:TUP:a	!
2B_ 2D_ 2GG\_	(24dd\LL	pp
.	24gg\	.
.	24bb\J	.
.	8gg\J)	.
!	!LO:TUP:a	!
.	(24dd\LL	.
.	24gg\	.
.	24bb\J	.
.	8gg\J)	.
!!LO:LB:g=original
=106	=106	=106
!	!LO:TUP:a	!
2B_ 2D_ 2GG\_	(24dd\LL	.
.	24gg\	.
.	24bb\	.
.	24gg\	.
.	24dd\	.
.	24gg\JJ	.
!	!LO:TUP:a	!
.	24bb\LL	.
.	24gg\	.
.	24dd\	.
.	24gg\	>
.	24bb\	.
.	24gg\JJ)	.
=107	=107	=107
!	!LO:TUP:a	!
4.B] 4.D] 4.GG\]	(24dd\LL	.
.	24gg\	.
.	24bb\JJ	]
.	4gg;\)	.
8r;	8r;	.
=108	=108	=108
(4GG#X 4GGG#X/	(4ff 4dd 4b-X 4f\	pp
8AAL 8AAA/	8eeL 8cc#X 8a 8e/	.
8BB-XJ 8BBB-X/	8ddJ 8a 8f 8d/	.
=109	=109	=109
*	*^	*
8AAL 8AAA/	8cc#XL 8a 8f 8c#X/	4ryy	.
8GG 8GGG/	8b 8e 8B/	.	.
8FF 8FFF/	8a 8A/	(16d\LL	.
.	.	16d-X\JJ)	.
[8GGJ [8CC;/)	8gJ 8cn 8G;/)	8ryy	.
*	*v	*v	*
*	*clefF4	*
!!LO:PB:g=original
=110||	=110||	=110||
!!LO:TX:a:B:t=Tempo I.
4GG] 4CC/]	4r	<
.	(8qF#X/	.
4r	4G) 4C\	.
*	*clefG2	*
=111	=111	=111
(8qF#X/	.	.
4G) 4C\	4r	.
!	!LO:S:s=1:note:problem=note-level slur	!
.	(8qf#X/	.
!	!LO:S:s=1:note:problem=note-level slur	!
4r	4g) 4c/	[
*clefG2	*	*
=112	=112	=112
!LO:S:s=1:note:problem=note-level slur	!	!
(8qf#X/	.	.
!LO:S:s=1:note:problem=note-level slur	!	!
4g) 4c/	4r	.
.	(8qff#X/	.
4r	4gg) 4cc\	.
=113	=113	=113
(8qff#X/	.	.
4gg) 4cc\	4r	.
!	!LO:S:s=1:note:problem=note-level slur	!
.	(8qfff#X/	.
!	!LO:S:s=1:note:problem=note-level slur	!
4r	4ggg 4ccc\)	.
=114	=114	=114
!LO:S:s=1:note:problem=note-level slur	!	!
(8qf#X/	.	.
!LO:S:s=1:note:problem=note-level slur	!	!
8gL) 8c/	2r	p
8g 8c/	.	.
8g 8c/	.	.
8gJ 8c/	.	.
=115	=115	=115
8gL 8c/	2r	.
8g 8c/	.	.
8g 8c/	.	.
8gJ 8c/	.	.
=116	=116	=116
8gL 8c/	8aaL 8ff 8dd\	.
8g 8c/	8bbJ 8gg 8ee\	.
8g 8c/	8aaL 8ff 8dd\	.
8gJ 8c/	8bbJ 8gg 8ee\	.
=117	=117	=117
8gL 8c/	16aaLL 16ff 16dd\	.
.	16bb 16gg 16ee\	.
8g 8c/	16aa 16ff 16dd\	.
.	16ggJJ 16ee 16cc\	.
8g 8c/	8ffL 8dd 8b\	.
8gJ 8c/	8eeJ 8cc\	.
!!LO:LB:g=original
=118	=118	=118
*^	*	*
8aL 8f/	2G\	8ffL 8dd 8b\	.
8gJ 8e/	.	8ggJ 8ee 8cc\	.
8aL 8f/	.	8ffL 8dd 8b\	.
8gJ 8e/	.	8ggJ 8ee 8cc\	.
*v	*v	*	*
=119	=119	=119
!LO:TX:t=P:problem:belka ósemkowa nad pauzą	!	!
16aLL 16f/	16ffLL 16dd 16b\	.
8r	16gg 16ee 16cc\	.
.	16ff 16dd 16b\	.
(16f#X/JJ	16eeJJ 16cc 16a\	.
8g/L)	4dd 4b\	.
[8G/J	.	.
=120	=120	=120
*^	*	*
(8f/L	2G\_	(8ccL 8a\	<
8e/J)	.	8ddJ 8b\)	.
(8f/L	.	(8ccL 8a\	.
8e/J)	.	8ddJ 8b\)	.
=121	=121	=121	=121
(8f/L	2G\]	(16ccLL 16a\	.
.	.	16dd 16b\	[[
8e/	.	16cc 16a\	.
.	.	16bJJ 16g\	.
8d/)	.	8aL 8f/)	.
8c/J	.	8gJ 8e/	.
*v	*v	*	*
*clefF4	*	*
=122	=122	=122
(8cL 8A-X\	(>8f#XL [8d/	.
8BJ 8G\)	8gJ 8d/])	.
(8cL 8A-\	(>8f#L [8d/	.
8BJ 8G\)	8gJ 8d/])	.
=123	=123	=123
(8cL 8A-X\	(<16f#XLL 16d/	.
.	16g/	.
8D\J)	16f#/	.
.	16e/JJ	.
8B 8Fn 8GG\	32d\LLL)	.
.	(32e\	<
.	32fn\	.
.	32g\J	.
!	!LO:TUP:a	!
8r	56a\L	.
.	56b\	.
.	56cc\	.
.	56dd\	.
.	56ee\	.
.	56ff\	.
.	56gg\JJJ)	[
*clefG2	*	*
!!LO:LB:g=original
=124	=124	=124
(16g/LL	8aaL 8ff 8dd\	f
16f/	.	.
16e/	8bbJ 8gg 8ee\	.
16d/JJ	.	.
16c/LL	8aaL 8ff 8dd\	.
16B/	.	.
16A/	8bbJ 8gg 8ee\	.
16G/JJ)	.	.
=125	=125	=125
8g/L	16aaLL 16ff 16dd\	.
.	16bb 16gg 16ee\	.
8G/J	16aa 16ff 16dd\	.
.	16ggJJ 16ee 16cc\	.
(16A/LL	8ffL 8dd 8b\	.
16B/	.	.
16c/	8eeJ 8cc\	.
16d/JJ)	.	.
=126	=126	=126
(16e/LL	8ffL 8dd 8b\	.
16d/	.	.
16c/	8ggJ 8ee 8cc\	.
16B/JJ	.	.
*clefF4	*	*
16A\LL	8ffL 8dd 8b\	.
16G\	.	.
16F\	8ggJ 8ee 8cc\	.
16E\JJ)	.	.
=127	=127	=127
(8F\L	16ffLL 16dd 16b\	.
.	16gg 16ee 16cc\	.
8F#X\J	16ff 16dd 16b\	.
.	16eeJJ 16cc 16a\	.
8G/L)	4dd 4b 4g\	.
8GG/J	.	.
=128	=128	=128
8A\L	8cc#XL 8a 8e/	<
16G\L	16ddL 16a 16f/	.
16G\JJ	16ddJJ 16a 16f/	.
8F\L	8eeL 8b 8g\	.
8E\J	8ffJ 8ccn 8a\	.
=129	=129	=129
8D/L	8ggL 8dd 8b\	.
8C/	8aa 8ee 8cc\	[
8BB/	8bb 8ff 8dd\	.
8AA/J	8cccJ 8gg 8ee\	.
!!LO:LB:g=original
=130	=130	=130
8GG\L	8dddL 8aa 8ff\	ff
(8qF#X/	.	.
8G\J)	8eeeJ 8bb 8gg\	.
8GG\L	8dddL 8aa 8ff\	.
(8qF#/	.	.
8G\J)	8eeeJ 8bb 8gg\	.
=131	=131	=131
8GG\L	8dddL 8aa 8ff\	.
(8qF#X/	.	.
8G\J)	16cccL 16gg 16ee\	.
.	16bbJJ 16ff 16dd\	.
8C\L	8ccc 8gg 8ee\	.
(8qB/	.	.
8c\J)	8r	.
*clefG2	*	*
=132	=132	=132
!	!LO:TX:t=P:problem:mixed beam	!LO:DY:rj
2ryy	8cc#X<L 8f#X</	p
.	8bbJ 8gg#X 8ee\	.
!	!LO:TX:t=P:problem:mixed beam	!
.	8b<L 8e</	.
!	!LO:TX:t=P:problem:# w nawiasie	!
.	8gg#XJ 8ee 8cc#X\	.
=133	=133	=133
!	!LO:TX:t=P:problem:mixed beam	!
2ryy	8a<L 8d<\	.
.	16ff#XL 16dd 16b/	.
.	16ff#JJ 16dd 16b/	.
!	!LO:TX:t=P:problem:mixed beam	!
.	8g#X<L 8c#X<\	.
.	8eeJ 8cc#X 8a/	.
*clefF4	*	*
=134	=134	=134
*	*^	*
8F#XL 8BB\	8dd#X/L	4b\	.
8f#XJ 8B\	(16dd#/L	.	.
.	16ff#X/JJ)	.	.
.	(>8qff#/	.	.
8F#L 8BB\	4cc#X 4a#X\)	4ryy	.
8f#J 8B\	.	.	.
=135	=135	=135	=135
8F#XL 8BB\	8dd#X/L	4an\	.
8f#XJ 8B\	(16dd#/L	.	.
.	16ff#X/JJ)	.	.
.	(>8qff#/	.	.
8F#L 8BB\	4cc#X 4g#X/)	4ryy	.
8f#J 8B\	.	.	.
!!LO:LB:g=original
=136	=136	=136	=136
8DL 8GG\	8b/L	4g\	.
8dJ 8G\	(16b/L	.	.
.	16dd/JJ)	.	.
.	(>8qdd/	.	.
8DL 8GG\	4a 4f#X/)	4ryy	.
8dJ 8G\	.	.	.
=137	=137	=137	=137
8DL 8GG\	8b/L	4fn\	.
8dJ 8G\	(16b/L	.	.
.	16dd/JJ)	.	.
.	(>8qdd/	.	.
8DL 8GG\	4a 4e/)	4ryy	.
8dJ 8G\	.	.	.
*	*v	*v	*
=138	=138	=138
!	!LO:TX:t=P:problem:mixed beam	!
2ryy	16F</LL	.
.	16c<\	.
!	!	!LO:HP:a
.	16a 16f 16d\	>
.	16aJJ 16f 16d\	.
!	!LO:TX:t=P:problem:mixed beam	!
.	16E</LL	.
.	16B</	.
.	16g#X 16e 16c#X\	.
.	16g#JJ 16e 16c#\	.
=139	=139	=139
!	!LO:TX:t=P:problem:mixed beam	!
4ryy	16D</LL	.
.	16A</	.
.	16f#X 16d 16B\	.
.	16f#JJ 16d 16B\	]]
8C\L	8r	.
8G\J	8e 8c 8A/	.
=140	=140	=140
*	*^	*
8FF#XL 8BBB/	8d#X/L	4B\	pp
8F#XJ 8BB/	(16d#/L	.	.
.	16f#X/JJ)	.	.
.	(>8qf#/	.	.
8FF#L 8BBB/	4c#X 4A#X/)	4ryy	.
8F#J 8BB/	.	.	.
=141	=141	=141	=141
8FF#XL 8BBB/	8d#X/L	4An\	.
8F#XJ 8BB/	(16d#/L	.	.
.	16f#X/JJ)	.	.
.	(>8qf#/	.	.
8FF#L 8BBB/	4c#X 4G#X/)	4ryy	.
8F#J 8BB/	.	.	.
*	*v	*v	*
!!LO:LB:g=original
=142	=142	=142
.	(>8qff#X/	<
8FF#XL 8BBB/	4cc#X 4g#X/)	.
8F#XJ 8BB/	.	.
.	(>8qfff#X/	.
8FF#L 8BBB/	4ccc#X 4gg#X\)	[[
8F#J 8BB/	.	.
=143	=143	=143
.	(>8qaaa/	<
(16CC/LL	4eee 4aa\)	.
16CC#X/	.	.
16DD/	.	.
16DD#X/JJ	.	.
16EE/LL	4r	.
16FF/	.	.
16FF#X/	.	.
16GG/JJ	.	.
=144	=144	=144
16GG#X/LL	2r	.
16AA/	.	.
16AA#X/	.	.
16BB/JJ	.	.
16C/LL	.	.
16C#X/	.	.
16D/	.	.
16D#X/JJ	.	.
=145	=145	=145
16E\LL	(16G#X/LL	.
16F\	16A/	.
16F#X\	16A#X/	.
16G\JJ	16B/JJ	.
16G#X\LL	16c/LL	.
16A\	16c#X/	.
16A#X\	16d/	.
16B\JJ)	16d#X/JJ	.
=146	=146	=146
(8c\L	8e/L)	f
8B\	(>16eL 16c/	.
.	16f/JJ)	.
8B-X\	8eL 8c/	.
8A\J	(>16eL 16c/	.
.	16f/JJ)	.
!!LO:PB:g=original
=147	=147	=147
8A-X\L	8eL 8c/	.
8G\	(>16eL 16c/	.
.	16f/JJ)	.
8G-X\	8eL 8c/	.
8F\J	(>16eL 16c/	.
.	16f/JJ)	.
=148	=148	=148
8E\L	8gL 8e/	.
8D#X\	(>16gL 16e/	.
.	16a/JJ)	>
8Dn\	8gL 8e/	.
8C#X\J	(>16gL 16e/	.
.	16a/JJ)	.
=149	=149	=149
8Cn/L	8gL 8e/	.
8BB/	(>16gL 16e/	.
.	16a/JJ)	]
8C/	8gL 8e/	.
8D-X/J)	(>16gL 16e/	.
.	16a/JJ)	.
=150	=150	=150
(8GL 8C\	8gL 8e/	p
8B\J)	(>16gL 16e/	.
.	16a/JJ)	.
(8GL 8C\	8gL 8e/	.
8B\J)	(>16gL 16e/	.
.	16a/JJ)	.
=151	=151	=151
(8GL 8C\	8gL 8e/	.
8B\J)	(>16gL 16e/	.
.	16a/JJ)	.
(8GL 8C\	(>16gLL 16e/	.
.	16a 16f/	.
8B\J)	16g 16e/	.
.	16fJJ 16d/)	.
=152	=152	=152
(8GL 8C\	8eL 8c/	.
8B\J)	(>16eL 16c/	.
.	16f/JJ)	.
(8GL 8C\	8eL 8c/	.
8B\J)	(>16eL 16c/	.
.	16f/JJ)	.
!!LO:LB:g=original
=153	=153	=153
(8GL 8C\	8eL 8c/	.
8B\J)	(>16eL 16c/	.
.	16f/JJ)	.
(8GL 8C\	(>16eLL 16c/	.
.	16f 16d/	.
8B\J)	16e 16c/	.
.	16d/JJ)	.
=154	=154	=154
(8GL 8C\	8c/L	.
8B\J)	(>16c/L	.
.	16d/JJ)	.
(8GL 8C\	8c/L	.
8B\J)	(>16c/L	.
.	16d/JJ)	.
=155	=155	=155
(8GL 8C\	8c/L	.
8B\J)	(>16c/L	.
.	16d/JJ)	.
(8GL 8C\	(>16c/LL	.
.	16d/	.
8B\J)	16e 16c/	.
.	16fJJ 16d/)	.
=156	=156	=156
(8GL 8C\	8gL 8e/	.
8B\J)	(>16gL 16e/	.
.	16a/JJ)	.
(8GL 8C\	8gL 8e/	.
8B\J)	(>16gL 16e/	.
.	16a/JJ)	.
=157	=157	=157
(8GL 8C\	8gL 8e\	<
8B\J)	(8ccc 8cc\	.
(8GL 8C\	8ddd 8dd\	.
8B\J)	8eeeJ 8ee\)	[[
=158	=158	=158
*	*8va	*
(8CC/L	8gggL 8eee 8gg\	f
8C/J)	(16gggL 16eee 16gg\	.
.	16aaaJJ 16fff 16aa\)	.
(8DD/L	8gggL 8eee 8gg\	.
8D/J)	(16gggL 16eee 16gg\	.
.	16aaaJJ 16fff 16aa\)	.
!!LO:LB:g=original
=159	=159	=159
(8EE/L	8gggL 8eee 8gg\	.
8E/J)	(16gggL 16eee 16gg\	.
.	16aaaJJ 16fff 16aa\)	.
(8FF/L	(16gggLL 16eee 16gg\	.
.	16aaa 16fff 16aa\	.
8F/J)	16ggg 16eee 16gg\	.
.	16fffJJ 16ddd 16ff\)	.
=160	=160	=160
(8GG\L	8eeeL 8ccc 8ee\	.
8G\J)	(16eeeL 16ccc 16ee\	.
.	16fffJJ 16ddd 16ff\)	.
(8GG#X/L	8eeeL 8ccc 8ee\	.
8G#X/J)	(16eeeL 16ccc 16ee\	.
.	16fffJJ 16ddd 16ff\)	.
=161	=161	=161
(8AA\L	8eeeL 8ccc 8ee\	.
8A\J)	(16eeeL 16ccc 16ee\	.
.	16fffJJ 16ddd 16ff\)	.
(8BB\L	(16eeeLL 16ccc 16ee\	.
.	16fff 16ddd 16ff\	.
8B\J)	16eee 16ccc 16ee\	.
.	16dddJJ 16bb 16dd\)	.
=162	=162	=162
(8cL 8C\	8cccL 8aa 8cc/	.
8BJ 8BB\)	(16cccL 16aa 16cc/	.
.	16dddJJ 16bb 16dd/)	.
(8cL 8C\	8cccL 8aa 8cc/	.
8BJ 8BB\)	(16cccL 16aa 16cc/	.
.	16dddJJ 16bb 16dd/)	.
=163	=163	=163
(8cL 8C\	8cccL 8aa 8cc/	.
8BJ 8BB\)	(16cccL 16aa 16cc/	.
.	16dddJJ 16bb 16dd/)	.
(8cL 8C\	(16cccLL 16aa 16cc/	.
.	16ddd 16bb 16dd/	.
8BJ 8BB\)	16eee 16ccc 16ee/	.
.	16fffJJ 16ddd 16ff/)	.
!!LO:LB:g=original
=164	=164	=164
(8AL 8AA\	8gggL 8eee 8gg\	.
8BJ 8BB\)	(16gggL 16eee 16gg\	.
.	16aaaJJ 16fff 16aa\)	.
(8cL 8C\	8gggL 8eee 8gg\	.
8BJ 8BB\)	(16gggL 16eee 16gg\	.
.	16aaaJJ 16fff 16aa\)	.
=165	=165	=165
(8AL 8AA\	(8gggL 8eee 8gg\	<
8A-X 8AA-X\	8aaa-X 8eee-X 8ccc 8aa-X\	.
8G 8GG\	8aaan 8eeen 8ccc#X 8aan\	.
8FJ 8FF\)	8bbbJ 8ggg 8ddd 8bb\)	[
=166	=166	=166
8EL 8EE/	8ccccL 8ggg 8eee 8ccc\	ff
[8DJ [8DD/	(16ccccL 16ggg 16eee 16ccc\	.
.	16ddddJJ 16aaa 16fff 16ddd\)	.
16D]LL 16DD/]	8ccccL 8ggg 8eee 8ccc\	.
16DJ 16DD/	.	.
[8CJ [8CC/	(16ccccL 16ggg 16eee 16ccc\	.
.	16ddddJJ 16aaa 16fff 16ddd\)	.
=167	=167	=167
16C]LL 16CC/]	8ccccL 8ggg 8eee 8ccc\	.
16CJ 16CC/	.	.
[8BBJ [8BBB/	(16ccccL 16ggg 16eee 16ccc\	.
.	16ddddJJ 16aaa 16fff 16ddd\)	.
16BB]LL 16BBB/]	8ccccL 8ggg 8eee 8ccc\	.
16BBJ 16BBB/	.	.
[8AAJ [8AAA/	(16ccccL 16ggg 16eee 16ccc\	.
.	16ddddJJ 16aaa 16fff 16ddd\)	.
=168	=168	=168
16AA]LL 16AAA/]	8ccccL 8ggg 8eee 8ccc\	.
16AAJ 16AAA/	.	.
8GGJ 8GGG/	(16ccccL 16ggg 16eee 16ccc\	.
.	16ddddJJ 16aaa 16fff 16ddd\)	.
(16AALL 16AAA/	(16ccccLL 16ggg 16eee 16ccc\	.
16BB 16BBB/	16bbb 16fff 16ddd 16bb\	.
16C 16CC/	16aaa 16eee 16ccc 16aa\	.
16BBJJ 16BBB/)	16bbbJJ 16fff 16ddd 16bb\)	.
!!LO:LB:g=original
=169	=169	=169
(16AALL 16AAA/	(16ccccLL 16ggg 16eee 16ccc\	.
16BB 16BBB/	16bbb 16fff 16ddd 16bb\	.
16C 16CC/	16aaa 16eee 16ccc 16aa\	.
16BBJJ 16BBB/)	16bbbJJ 16fff 16ddd 16bb\)	.
(16AALL 16AAA/	(16ccccLL 16ggg 16eee 16ccc\	.
16BB 16BBB/	16bbb 16fff 16ddd 16bb\	.
16C 16CC/	16aaa 16eee 16ccc 16aa\	.
16BBJJ 16BBB/)	16bbbJJ 16fff 16ddd 16bb\)	.
=170	=170	=170
(16AALL 16AAA/	(16ccccLL 16ggg 16eee 16ccc\	.
16BB 16BBB/	16bbb 16fff 16ddd 16bb\	.
16C 16CC/	16aaa 16eee 16ccc 16aa\	.
16BBJJ 16BBB/)	16bbbJJ 16fff 16ddd 16bb\)	.
(16AALL 16AAA/	(16ccccLL 16ggg 16eee 16ccc\	.
16BB 16BBB/	16bbb 16fff 16ddd 16bb\	.
16C 16CC/	16aaa 16eee 16ccc 16aa\	.
16BBJJ 16BBB/)	16bbbJJ 16fff 16ddd 16bb\)	.
=171	=171	=171
8AAL 8AAA/	8ccccL 8ggg 8eee 8ccc\	.
[8GGJ [8GGG/	(16ccccL 16ggg 16eee 16ccc\	.
.	16ddddJJ 16aaa 16fff 16ddd\)	.
16GG]LL 16GGG/]	8ccccL 8ggg 8eee 8ccc\	.
16GGJ 16GGG/	.	.
[8FFJ [8FFF/	(16ccccL 16ggg 16eee 16ccc\	.
.	16ddddJJ 16aaa 16fff 16ddd\)	.
=172	=172	=172
16FF]LL 16FFF/]	8ccccL 8ggg 8eee 8ccc\	.
16FFJ 16FFF/	.	.
[8EEJ [8EEE/	(16ccccL 16ggg 16eee 16ccc\	.
.	16ddddJJ 16aaa 16fff 16ddd\)	.
16EE]LL 16EEE/]	8ccccL 8ggg 8eee 8ccc\	.
16EEJ 16EEE/	.	.
[8DDJ [8DDD/	(16ccccL 16ggg 16eee 16ccc\	.
.	16ddddJJ 16aaa 16fff 16ddd\)	.
=173	=173	=173
16DD]LL 16DDD/]	8ccccL 8ggg 8eee 8ccc\	.
16DDJ 16DDD/	.	.
8CCJ 8CCC/	(16ccccL 16ggg 16eee 16ccc\	.
.	16ddddJJ 16aaa 16fff 16ddd\)	.
(16CCLL 16CCC/	(16ccccLL 16ggg 16eee 16ccc\	.
16DD 16DDD/	16bbb 16fff 16ddd 16bb\	.
16EE 16EEE/	16aaa 16eee 16ccc 16aa\	.
16DDJJ 16DDD/)	16bbbJJ 16fff 16ddd 16bb\)	.
!!LO:LB:g=original
=174	=174	=174
(16CCLL 16CCC/	(16ccccLL 16ggg 16eee 16ccc\	.
16DD 16DDD/	16bbb 16fff 16ddd 16bb\	.
16EE 16EEE/	16aaa 16eee 16ccc 16aa\	.
16DDJJ 16DDD/)	16bbbJJ 16fff 16ddd 16bb\)	.
(16CCLL 16CCC/	(16ccccLL 16ggg 16eee 16ccc\	.
16DD 16DDD/	16bbb 16fff 16ddd 16bb\	.
16EE 16EEE/	16aaa 16eee 16ccc 16aa\	.
16DDJJ 16DDD/)	16bbbJJ 16fff 16ddd 16bb\)	.
=175	=175	=175
(16CCLL 16CCC/	(16ccccLL 16ggg 16eee 16ccc\	.
16DD 16DDD/	16bbb 16fff 16ddd 16bb\	.
16EE 16EEE/	16aaa 16eee 16ccc 16aa\	.
16DDJJ 16DDD/)	16bbbJJ 16fff 16ddd 16bb\)	.
(16CCLL 16CCC/	(16ccccLL 16ggg 16eee 16ccc\	.
16DD 16DDD/	16bbb 16fff 16ddd 16bb\	.
16EE 16EEE/	16aaa 16eee 16ccc 16aa\	.
16DDJJ 16DDD/	16bbbJJ 16fff 16ddd 16bb\)	.
=176	=176	=176
8CC 8CCC/)	8cccc 8ggg 8eee 8ccc\	.
8r	8r	.
*clefG2	*	*
!	!LO:TUP:a	!
!	!LO:TX:t=P:problem:mixed beam	!
4ryy	24gg<LL 24ee< 24cc</	.
.	24fff#X 24ddd#X 24ccc 24ff#X\	.
.	24gg< 24ee< 24cc</	.
.	24fff# 24ddd# 24ccc 24ff#\	.
.	24gg< 24ee< 24cc</	.
.	24fff#JJ 24ddd# 24ccc 24ff#\	.
=177	=177	=177
*	*tremolo	*
!	!LO:TX:t=P:problem:tuplet - błąd wyświetlania	!
!	!LO:TX:t=P:problem:mixed beam	!
!	!LO:TX:t=P:problem:LO:N:vis=2.	!
2ryy	24gg<LL 24ee< 24cc</	<
.	24fff#X 24ddd#X 24ccc 24ff#X\	.
.	24gg< 24ee< 24cc</	.
.	24fff# 24ddd# 24ccc 24ff#\	.
.	24gg< 24ee< 24cc</	.
.	24fff# 24ddd# 24ccc 24ff#\	.
.	24gg< 24ee< 24cc</	.
.	24fff# 24ddd# 24ccc 24ff#\	.
.	24gg< 24ee< 24cc</	.
.	24fff# 24ddd# 24ccc 24ff#\	.
.	24gg< 24ee< 24cc</	.
.	24fff#JJ 24ddd#X 24ccc 24ff#X\	.
=178	=178	=178
!	!LO:TX:t=P:problem:tuplet - błąd wyświetlania	!
!	!LO:TX:t=P:problem:mixed beam	!
!	!LO:TX:t=P:problem:LO:N:vis=2.	!
2ryy	24gg<LL 24ee< 24cc</	.
.	24fff#X 24ddd#X 24ccc 24ff#X\	.
.	24gg< 24ee< 24cc</	.
.	24fff# 24ddd# 24ccc 24ff#\	.
.	24gg< 24ee< 24cc</	.
.	24fff# 24ddd# 24ccc 24ff#\	.
.	24gg< 24ee< 24cc</	.
.	24fff# 24ddd# 24ccc 24ff#\	.
.	24gg< 24ee< 24cc</	.
.	24fff# 24ddd# 24ccc 24ff#\	.
.	24gg< 24ee< 24cc</	.
.	24fff#JJ 24ddd#X 24ccc 24ff#X\	.
=179	=179	=179
!	!LO:TX:t=P:problem:tuplet - błąd wyświetlania	!
!	!LO:TX:t=P:problem:mixed beam	!
!	!LO:TX:t=P:problem:LO:N:vis=2.	!
2ryy	24gg<LL 24ee< 24cc</	.
.	24fff#X 24ddd#X 24ccc 24ff#X\	.
.	24gg< 24ee< 24cc</	.
.	24fff# 24ddd# 24ccc 24ff#\	.
.	24gg< 24ee< 24cc</	.
.	24fff# 24ddd# 24ccc 24ff#\	.
.	24gg< 24ee< 24cc</	.
.	24fff# 24ddd# 24ccc 24ff#\	.
.	24gg< 24ee< 24cc</	.
.	24fff# 24ddd# 24ccc 24ff#\	.
.	24gg< 24ee< 24cc</	.
.	24fff#JJ 24ddd#X 24ccc 24ff#X\	[
*clefF4	*	*
=180	=180	=180
4e: 4G: 4C:\	4ggg 4eee 4ccc 4gg\	fff
4r	4r	.
*clefG2	*	*
=181	=181	=181
4ee: 4g: 4c:/	4cccc 4ggg 4eee 4ccc\	.
4r	4r	.
*	*X8va	*
*clefF4	*clefF4	*
=182	=182	=182
4CC 4CCC^>/	4C^>/	.
4r	4r	.
==	==	==
*-	*-	*-
!!!system-decoration: {(g1)}
!!!RDF**kern: i = editorial accidental
!!!RDF**kern: > = above
!!!RDF**kern: < = below
!!!RDF**kern: N = linked
!!!RDF**dynam: > = "dim.", fontstyle= "italic"
!!!ENC: Anastazja Marusiak
!!!EED: Katarzyna Serwa
!!!END: 2023-10-02
!!!EEV: 2023-10-12
